img/partners/a-bank.svg

<svg width="286" height="59" viewBox="0 0 286 59" fill="none" xmlns="http://www.w3.org/2000/svg">
<path d="M0 49.451H37.6783V57.2555H0V49.451ZM272.48 24.3975L284.359 11.3095H275.506L265.771 22.1874V11.3095H258.716V38.8149H265.805V27.2291L276.215 38.8149H285.31L272.48 24.3975ZM41.8282 26.2104C41.638 31.3904 40.9809 32.3745 38.1105 32.3745V38.8322H39.1826C46.3932 38.8322 48.1051 35.1199 48.3644 26.8493L48.6757 17.6981H55.3329V38.8149H62.3879V11.3095H42.3124L41.8282 26.2104ZM11.2049 30.9414H26.0756L28.5483 38.8149H36.7964L25.6779 5.73245C24.6059 2.53816 23.3609 0 19.1071 0C14.8534 0 13.5566 2.53816 12.4153 5.73245L0.760828 38.8149H8.50744L11.2049 30.9414V30.9414ZM18.744 8.63321H18.9342L23.9142 24.3111H13.4355L18.744 8.63321ZM183.55 15.2117H175.682V7.44183H193.942V0.53526H168.281V38.8149H183.55C192.005 38.8149 196.864 34.6019 196.864 26.9011C196.864 19.5974 191.936 15.2117 183.55 15.2117V15.2117ZM183.187 31.8911H175.682V21.9456H183.187C187.094 21.9456 189.29 23.6723 189.29 26.9184C189.29 30.1644 187.094 31.8911 183.187 31.8911ZM113.415 10.6706V0.483459H106.378V10.6706C102.682 10.7924 99.1861 12.3736 96.6573 15.067C94.1285 17.7606 92.7736 21.3461 92.8901 25.0363C92.7642 28.7341 94.1144 32.3303 96.6438 35.0341C99.173 37.738 102.674 39.3277 106.378 39.4538V49.8136H113.432V39.4538C115.267 39.3935 117.071 38.9727 118.742 38.2151C120.414 37.4576 121.919 36.3783 123.172 35.0391C124.424 33.6997 125.4 32.1269 126.044 30.4105C126.687 28.694 126.985 26.8678 126.92 25.0363C126.994 23.2037 126.701 21.3746 126.06 19.6561C125.419 17.9374 124.441 16.3636 123.184 15.0263C121.927 13.6892 120.415 12.6152 118.738 11.8674C117.061 11.1196 115.252 10.7128 113.415 10.6706V10.6706ZM106.395 32.8062C104.528 32.6014 102.816 31.672 101.629 30.2185C100.442 28.765 99.8742 26.9038 100.049 25.0363C99.8967 23.1734 100.472 21.324 101.655 19.8757C102.838 18.4272 104.537 17.4923 106.395 17.2664V32.8062ZM113.45 32.8062V17.2664C115.308 17.4923 117.006 18.4272 118.189 19.8757C119.372 21.324 119.948 23.1734 119.796 25.0363C119.961 26.9019 119.39 28.7583 118.205 30.2098C117.02 31.6613 115.313 32.593 113.45 32.8062ZM153.359 30.3716V21.0996C153.359 14.3311 149.053 10.1009 141.825 10.1009C134.597 10.1009 130.378 14.5901 130.032 19.2693H137.174C137.416 18.2679 138.488 16.4894 141.808 16.4894C142.429 16.4097 143.058 16.4749 143.648 16.6804C144.239 16.8859 144.773 17.2255 145.209 17.6729C145.645 18.1201 145.972 18.6626 146.162 19.2572C146.352 19.8521 146.401 20.4828 146.304 21.0996H139.387C133.128 21.0996 129.41 24.3975 129.41 29.8536C129.361 31.1557 129.587 32.4534 130.072 33.663C130.557 34.8725 131.291 35.9666 132.227 36.8749C133.162 37.7831 134.279 38.485 135.503 38.9353C136.728 39.3854 138.033 39.5738 139.335 39.4883C140.805 39.5655 142.271 39.2797 143.604 38.6564C144.938 38.0329 146.096 37.0912 146.978 35.9142C147.552 36.8837 148.389 37.6707 149.394 38.184C150.397 38.6975 151.526 38.9163 152.65 38.8149H155.088V32.4609C153.895 32.4609 153.359 31.8911 153.359 30.3716V30.3716ZM146.304 28.645C146.333 29.3251 146.217 30.0037 145.963 30.6358C145.711 31.2679 145.327 31.8395 144.837 32.3126C144.346 32.7857 143.762 33.1496 143.12 33.3807C142.479 33.6115 141.796 33.7041 141.116 33.6523C138.574 33.6523 136.569 32.7371 136.569 29.9918C136.569 27.2464 138.799 26.8493 140.684 26.8493H146.304V28.645V28.645ZM79.9561 19.6665H74.8896V11.3095H67.8347V38.8149H80.0771C87.7372 38.8149 90.452 33.8422 90.452 29.1457C90.4866 23.0852 86.6825 19.6665 79.9561 19.6665ZM79.4373 32.8062H74.8896V25.8996H79.4373C81.8754 25.8996 83.3452 27.0047 83.3452 29.3529C83.3452 31.7011 81.9446 32.8062 79.4373 32.8062V32.8062ZM223.787 30.3716V21.0996C223.787 14.3311 219.481 10.1009 212.254 10.1009C205.026 10.1009 200.807 14.5901 200.461 19.2693H207.602C207.844 18.2679 208.916 16.4894 212.236 16.4894C212.857 16.4097 213.486 16.4749 214.076 16.6804C214.667 16.8859 215.202 17.2255 215.638 17.6729C216.073 18.1201 216.4 18.6626 216.59 19.2572C216.781 19.8521 216.829 20.4828 216.732 21.0996H209.815C203.556 21.0996 199.838 24.3975 199.838 29.8536C199.79 31.1557 200.015 32.4534 200.501 33.663C200.985 34.8725 201.72 35.9666 202.655 36.8749C203.591 37.7831 204.708 38.485 205.932 38.9353C207.156 39.3854 208.462 39.5738 209.764 39.4883C211.247 39.58 212.731 39.3013 214.081 38.6775C215.43 38.0535 216.602 37.1038 217.493 35.9142C218.058 36.8667 218.88 37.6429 219.864 38.1553C220.847 38.6678 221.954 38.8962 223.061 38.8149H225.499V32.4609C224.271 32.4609 223.787 31.8911 223.787 30.3716ZM216.767 28.645C216.793 29.3244 216.675 30.0016 216.421 30.6325C216.167 31.2634 215.783 31.8338 215.293 32.3063C214.804 32.7787 214.22 33.1429 213.58 33.375C212.94 33.6068 212.259 33.7013 211.579 33.6523C209.037 33.6523 207.032 32.7371 207.032 29.9918C207.032 27.2464 209.262 26.8493 211.147 26.8493H216.767V28.645V28.645ZM246.318 21.5485H236.583V11.3095H229.528V38.8322H236.583V27.9889H246.318V38.8149H253.373V11.3095H246.318V21.5485Z" fill="#253256"/>
</svg>

<svg width="286" height="59" fill="none" xmlns="http://www.w3.org/2000/svg"><path d="M0 49.451h37.678v7.804H0v-7.804zm272.48-25.053l11.879-13.088h-8.853l-9.735 10.877V11.31h-7.055v27.506h7.089V27.229l10.41 11.586h9.095l-12.83-14.417zM41.828 26.21c-.19 5.18-.847 6.164-3.718 6.164v6.458h1.073c7.21 0 8.922-3.712 9.181-11.983l.312-9.15h6.657v21.116h7.055V11.31H42.312l-.484 14.9zm-30.623 4.731h14.87l2.473 7.874h8.248L25.678 5.732C24.606 2.538 23.36 0 19.108 0c-4.255 0-5.551 2.538-6.693 5.732L.761 38.815h7.746l2.698-7.874zm7.539-22.308h.19l4.98 15.678H13.435l5.309-15.678zm164.806 6.579h-7.868v-7.77h18.26V.535h-25.661v38.28h15.269c8.455 0 13.314-4.213 13.314-11.914 0-7.304-4.928-11.69-13.314-11.69zm-.363 16.68h-7.505v-9.946h7.505c3.907 0 6.103 1.726 6.103 4.972 0 3.246-2.196 4.973-6.103 4.973zM113.415 10.67V.483h-7.037v10.188a13.964 13.964 0 00-9.72 4.396 13.923 13.923 0 00-3.768 9.97 13.94 13.94 0 003.754 9.997 13.979 13.979 0 009.734 4.42v10.36h7.054v-10.36a13.969 13.969 0 009.74-4.415 13.913 13.913 0 003.748-10.003 13.803 13.803 0 00-3.736-10.01 13.837 13.837 0 00-9.769-4.355zm-7.02 22.135a7.162 7.162 0 01-4.766-2.587 7.14 7.14 0 01-1.58-5.183 7.226 7.226 0 011.606-5.16 7.25 7.25 0 014.74-2.61v15.54zm7.055 0v-15.54a7.247 7.247 0 014.739 2.61 7.228 7.228 0 011.607 5.16 7.18 7.18 0 01-1.591 5.174 7.195 7.195 0 01-4.755 2.596zm39.909-2.434V21.1c0-6.769-4.306-11-11.534-11-7.228 0-11.447 4.49-11.793 9.17h7.142c.242-1.002 1.314-2.78 4.634-2.78a4.03 4.03 0 014.496 4.61h-6.917c-6.259 0-9.977 3.297-9.977 8.754a9.297 9.297 0 002.817 7.02 9.322 9.322 0 007.108 2.614 8.968 8.968 0 007.643-3.574 5.968 5.968 0 005.672 2.9h2.438v-6.353c-1.193 0-1.729-.57-1.729-2.09zm-7.055-1.727a4.791 4.791 0 01-.341 1.99 4.805 4.805 0 01-2.843 2.746 4.832 4.832 0 01-2.004.271c-2.542 0-4.547-.915-4.547-3.66 0-2.746 2.23-3.143 4.115-3.143h5.62v1.796zm-66.348-8.979H74.89V11.31h-7.055v27.506h12.242c7.66 0 10.375-4.973 10.375-9.67.035-6.06-3.77-9.479-10.496-9.479zm-.519 13.14H74.89V25.9h4.547c2.438 0 3.908 1.105 3.908 3.453s-1.4 3.453-3.908 3.453zm144.35-2.434V21.1c0-6.769-4.306-11-11.533-11-7.228 0-11.447 4.49-11.793 9.17h7.141c.242-1.002 1.314-2.78 4.634-2.78a4.03 4.03 0 014.496 4.61h-6.917c-6.259 0-9.977 3.297-9.977 8.754a9.297 9.297 0 002.817 7.02 9.335 9.335 0 007.109 2.614 8.966 8.966 0 007.729-3.574 5.97 5.97 0 005.568 2.9h2.438v-6.353c-1.228 0-1.712-.57-1.712-2.09zm-7.02-1.727a4.827 4.827 0 01-1.474 3.661 4.841 4.841 0 01-3.714 1.346c-2.542 0-4.547-.915-4.547-3.66 0-2.746 2.23-3.143 4.115-3.143h5.62v1.796zm29.551-7.096h-9.735v-10.24h-7.055v27.523h7.055V27.99h9.735v10.826h7.055V11.31h-7.055v10.239z" fill="#253256"/></svg>
